X:422
M:C
L:1/8
K:F
f|c<F c>A G>AB>d|c<F c>A c>df>a|f<d c>A G>A B<d|c<F c>A F2F:|
f|F<f ~f>a g>fg>a|c<f ~f>a f>a f<c|d>fc>A G>AB>d|c<F c>A F2 F>f|

